X: 11494
T: UNDER THE ROSE
Q: "With spirit."
%R: jig
B: W. Hamilton "Universal Tune-Book" Vol. 1 Glasgow 1844 p.149 #4
S: http://imslp.org/wiki/Hamilton's_Universal_Tune-Book_(Various)
Z: 2016 John Chambers <jc:trillian.mit.edu>
M: 6/8
L: 1/8
K: G
% - - - - - - - - - - - - - - - - - - - - - - - - -
G |\
(BG)B (dB)d | (ec)e d2d | (BG)B (dB)d | (ec)e d2d |\
(Bd)B AdA | (Ge)G F2G | A>Bc B2B | (B>^c)d c2d |\
(e>f)g (f>e)d | (eA)^c d2 |]\
A |\
(dA)B (c>B)A |
(BA)G d2d | (gd)e (=f>e)d | (ed)c A2d |\
(eg)e (dg)d | cac B2c | (dB)G eEA | (F>E)F G3 |\
(A>G)A B3 | (c>B)c d2G | (e/d/)(c/B/)(A/G/) gec | def g2 |]
% - - - - - - - - - - - - - - - - - - - - - - - - -

%%sep 1 1 500
%%sep 1 1 500

